wp_data/wp-content/themes/eurostone/assets/images/kitchen/dekton_logo.svg

<svg width="163" height="35" viewBox="0 0 163 35" fill="none" xmlns="http://www.w3.org/2000/svg">
<g clip-path="url(#clip0_875_2673)">
<path d="M15.3154 8.42187C15.3154 9.51562 14.4403 10.3906 13.4557 10.3906H1.96913C0.875168 10.2812 0 9.40625 0 8.42187C0 7.4375 0.875168 6.45312 1.96913 6.45312H13.4557C14.4403 6.45312 15.3154 7.32812 15.3154 8.42187ZM13.3463 26.9062H1.96913C0.875168 26.9062 0.109396 27.7812 0.109396 28.7656C0.109396 29.75 0.984564 30.625 1.96913 30.625H13.4557C14.5497 30.625 15.3154 29.75 15.3154 28.7656C15.3154 27.7812 14.4403 26.9062 13.3463 26.9062ZM19.8007 11.5938H1.96913C0.875168 11.5938 0.109396 12.4688 0.109396 13.4531C0.109396 14.5469 0.984564 15.3125 1.96913 15.3125H19.8007C20.8946 15.3125 21.6604 14.4375 21.6604 13.4531C21.6604 12.4688 20.7852 11.5938 19.8007 11.5938ZM19.8007 21.7656H1.96913C0.875168 21.7656 0.109396 22.6406 0.109396 23.625C0.109396 24.7188 0.984564 25.4844 1.96913 25.4844H19.8007C20.8946 25.4844 21.6604 24.6094 21.6604 23.625C21.6604 22.6406 20.7852 21.7656 19.8007 21.7656ZM22.4262 16.7344H1.96913C0.875168 16.7344 0 17.5 0 18.5938C0 19.6875 0.875168 20.4531 1.85973 20.4531H22.2074C23.3013 20.4531 24.0671 19.5781 24.0671 18.5938C24.1765 17.5 23.4107 16.7344 22.4262 16.7344Z" fill="#1D1D1B"/>
<path d="M159.499 14.5469C160.921 14.5469 162.125 13.3437 162.125 11.9219C162.125 10.5 160.921 9.29688 159.499 9.29688C158.077 9.29688 156.874 10.5 156.874 11.9219C156.874 13.4531 158.077 14.5469 159.499 14.5469ZM159.499 14.3281C158.186 14.3281 157.202 13.3438 157.202 12.0312C157.202 10.7188 158.186 9.73437 159.499 9.73437C160.812 9.73437 161.796 10.7188 161.796 12.0312C161.796 13.2344 160.812 14.2188 159.499 14.3281ZM158.405 13.0156C158.405 13.2344 158.514 13.3438 158.733 13.3438C158.952 13.3438 159.061 13.2344 159.061 13.0156V12.4687H159.499L160.155 13.2344C160.265 13.3438 160.374 13.3438 160.374 13.3438C160.593 13.3438 160.702 13.2344 160.702 13.0156C160.702 12.9062 160.702 12.7969 160.593 12.7969L160.155 12.25C160.484 12.1406 160.702 11.8125 160.702 11.4844C160.702 10.9375 160.265 10.6094 159.608 10.6094H158.624C158.405 10.6094 158.296 10.7188 158.296 10.9375L158.405 13.0156ZM159.061 11.9219V11.1562H159.608C159.937 11.1562 160.046 11.2656 160.046 11.4844C160.046 11.7031 159.827 11.8125 159.608 11.8125H159.061V11.9219ZM98.6749 26.1406C98.7843 27.0156 99.5501 27.6719 100.425 27.5625C101.191 27.4531 101.738 26.9062 101.847 26.1406V12.5781H106.223C106.989 12.4688 107.645 11.8125 107.536 10.9375C107.427 10.2812 106.88 9.73438 106.223 9.625H94.4084C93.6427 9.51563 92.8769 10.1719 92.7675 10.9375C92.6581 11.7031 93.3145 12.4688 94.0803 12.5781C94.1897 12.5781 94.2991 12.5781 94.4084 12.5781H98.7843V26.1406H98.6749ZM32.1621 25.9219C32.1621 26.7969 32.8185 27.4531 33.6937 27.4531H38.7259C44.3051 27.4531 48.2433 23.5156 48.2433 18.4844C48.2433 13.4531 44.3051 9.625 38.7259 9.625H33.6937C32.8185 9.625 32.1621 10.2812 32.0527 11.1562V25.9219H32.1621ZM35.3346 24.7188V12.5781H38.8353C42.0078 12.3594 44.8521 14.875 45.0709 18.0469C45.0709 18.2656 45.0709 18.375 45.0709 18.5938C45.1803 21.7656 42.7735 24.5 39.4917 24.6094C39.2729 24.6094 39.0541 24.6094 38.8353 24.6094H35.3346V24.7188ZM74.389 26.1406C74.4984 27.0156 75.2641 27.6719 76.1393 27.5625C76.9051 27.4531 77.4521 26.9062 77.5615 26.1406V22.4219L80.5152 19.5781L86.2038 26.9062C86.5319 27.3438 86.9695 27.6719 87.5165 27.6719C88.3917 27.6719 89.048 27.0156 89.048 26.25C89.048 26.25 89.048 26.25 89.048 26.1406C89.048 25.7031 88.9386 25.375 88.6105 25.0469L82.7031 17.5L88.2823 12.1406C88.6105 11.8125 88.8292 11.375 88.8292 10.9375C88.8292 10.1719 88.1729 9.51562 87.4071 9.51562C86.8601 9.51562 86.4225 9.73437 86.0943 10.0625L77.6709 18.5938V11.1562C77.5615 10.2812 76.7957 9.625 75.9205 9.73437C75.1548 9.84375 74.6078 10.3906 74.4984 11.1562L74.389 26.1406ZM120.554 27.7812C125.586 27.8906 129.743 23.9531 129.853 18.9219C129.853 18.8125 129.853 18.7031 129.853 18.5938C129.853 13.4531 125.696 9.29688 120.554 9.29688C115.412 9.29688 111.255 13.4531 111.255 18.5938C111.146 23.625 115.194 27.7812 120.226 27.7812C120.335 27.8906 120.445 27.8906 120.554 27.7812ZM120.554 24.9375C117.163 24.9375 114.428 22.2031 114.537 18.8125C114.537 18.7031 114.537 18.7031 114.537 18.5938C114.428 15.3125 116.944 12.4688 120.335 12.3594C120.445 12.3594 120.554 12.3594 120.554 12.3594C123.945 12.3594 126.68 15.0937 126.571 18.4844C126.571 18.5938 126.571 18.5938 126.571 18.7031C126.68 21.9844 124.164 24.8281 120.882 24.9375C120.773 24.9375 120.663 24.9375 120.554 24.9375ZM136.088 26.1406C136.198 27.0156 136.963 27.6719 137.729 27.5625C138.495 27.4531 139.042 26.9062 139.151 26.1406V14.7656L148.341 26.5781C148.669 27.125 149.325 27.5625 149.982 27.5625H150.091C150.966 27.5625 151.623 26.9062 151.623 26.0312V11.0469C151.513 10.1719 150.747 9.51563 149.982 9.625C149.216 9.73438 148.669 10.2813 148.559 11.0469V21.9844L139.589 10.3906C139.261 9.84375 138.604 9.51562 137.948 9.51562H137.62C136.745 9.51562 136.088 10.1719 136.088 11.0469V26.1406ZM65.8561 18.5938C65.8561 17.8281 65.1997 17.1719 64.4339 17.1719H60.4957C59.7299 17.1719 59.0735 17.8281 59.0735 18.5938C59.0735 19.3594 59.7299 20.0156 60.4957 20.0156H64.5433C65.3091 20.0156 65.9655 19.3594 65.8561 18.5938ZM57.8702 24.7188H66.7313C67.497 24.7188 68.1534 25.375 68.1534 26.1406C68.1534 26.9062 67.497 27.5625 66.7313 27.5625H56.2292C55.3541 27.5625 54.6977 26.9062 54.6977 26.0312V11.2656C54.6977 10.3906 55.3541 9.73437 56.2292 9.73437C56.2292 9.73437 56.2292 9.73437 56.3386 9.73437H66.7313C67.497 9.73437 68.1534 10.3906 68.1534 11.1562C68.1534 11.9219 67.497 12.5781 66.7313 12.5781H57.8702V24.7188Z" fill="#1D1D1B"/>
</g>
<defs>
<clipPath id="clip0_875_2673">
<rect width="163" height="35" fill="white"/>
</clipPath>
</defs>
</svg>

<svg width="163" height="35" fill="none" xmlns="http://www.w3.org/2000/svg"><g clip-path="url(#clip0_875_2673)" fill="#1D1D1B"><path d="M15.315 8.422c0 1.094-.875 1.969-1.86 1.969H1.97C.875 10.28 0 9.406 0 8.42c0-.983.875-1.968 1.97-1.968h11.486c.984 0 1.86.875 1.86 1.969zm-1.969 18.484H1.97c-1.094 0-1.86.875-1.86 1.86 0 .984.876 1.859 1.86 1.859h11.487c1.094 0 1.86-.875 1.86-1.86 0-.984-.876-1.859-1.97-1.859zm6.455-15.312H1.969c-1.094 0-1.86.875-1.86 1.86 0 1.093.876 1.858 1.86 1.858h17.832c1.094 0 1.86-.874 1.86-1.859 0-.984-.876-1.86-1.86-1.86zm0 10.172H1.969c-1.094 0-1.86.875-1.86 1.859 0 1.094.876 1.86 1.86 1.86h17.832c1.094 0 1.86-.876 1.86-1.86 0-.984-.876-1.86-1.86-1.86zm2.625-5.032H1.97c-1.095 0-1.97.766-1.97 1.86 0 1.093.875 1.86 1.86 1.86h20.347c1.094 0 1.86-.876 1.86-1.86.11-1.094-.656-1.86-1.64-1.86zm137.073-2.187c1.422 0 2.626-1.203 2.626-2.625s-1.204-2.625-2.626-2.625-2.625 1.203-2.625 2.625c0 1.531 1.203 2.625 2.625 2.625zm0-.219c-1.313 0-2.297-.984-2.297-2.297 0-1.312.984-2.297 2.297-2.297 1.313 0 2.297.985 2.297 2.297 0 1.203-.984 2.188-2.297 2.297zm-1.094-1.312c0 .218.109.328.328.328.219 0 .328-.11.328-.328v-.547h.438l.656.765c.11.11.219.11.219.11.219 0 .328-.11.328-.328 0-.11 0-.22-.109-.22l-.438-.546a.821.821 0 00.547-.766c0-.546-.437-.875-1.094-.875h-.984c-.219 0-.328.11-.328.329l.109 2.078zm.656-1.094v-.766h.547c.329 0 .438.11.438.328 0 .22-.219.329-.438.329h-.547v.109zM98.675 26.14c.11.875.875 1.53 1.75 1.422.766-.11 1.313-.657 1.422-1.422V12.578h4.376c.766-.11 1.422-.765 1.313-1.64a1.63 1.63 0 00-1.313-1.313H94.408c-.765-.11-1.531.547-1.64 1.313-.11.765.546 1.53 1.312 1.64h4.704v13.563h-.11zm-66.513-.22c0 .876.657 1.532 1.532 1.532h5.032c5.58 0 9.517-3.937 9.517-8.969 0-5.03-3.938-8.859-9.517-8.859h-5.032c-.876 0-1.532.656-1.641 1.531v14.766h.11zm3.173-1.202v-12.14h3.5c3.173-.22 6.017 2.296 6.236 5.468v.547c.11 3.172-2.297 5.906-5.58 6.015h-4.156v.11zm39.054 1.422c.11.875.875 1.53 1.75 1.422a1.627 1.627 0 001.422-1.422v-3.72l2.954-2.843 5.689 7.328c.328.438.766.766 1.313.766.875 0 1.531-.656 1.531-1.422v-.11c0-.437-.11-.765-.438-1.093L82.704 17.5l5.58-5.36c.328-.328.546-.765.546-1.203 0-.765-.656-1.421-1.422-1.421-.547 0-.984.218-1.313.546l-8.423 8.532v-7.438c-.11-.875-.875-1.531-1.75-1.422a1.626 1.626 0 00-1.423 1.422l-.109 14.985zm46.165 1.64c5.032.11 9.189-3.828 9.299-8.86v-.327a9.29 9.29 0 00-9.299-9.297 9.29 9.29 0 00-9.299 9.297c-.109 5.031 3.939 9.187 8.971 9.187.109.11.219.11.328 0zm0-2.843c-3.391 0-6.126-2.735-6.017-6.125v-.22c-.109-3.28 2.407-6.124 5.798-6.234h.219c3.391 0 6.126 2.735 6.017 6.125v.22c.109 3.28-2.407 6.124-5.689 6.233h-.328zm15.534 1.203c.11.875.875 1.53 1.641 1.422.766-.11 1.313-.657 1.422-1.422V14.766l9.19 11.812c.328.547.984.985 1.641.985h.109c.875 0 1.532-.657 1.532-1.532V11.047c-.11-.875-.876-1.531-1.641-1.422a1.628 1.628 0 00-1.423 1.422v10.937l-8.97-11.593c-.328-.547-.985-.875-1.641-.875h-.328c-.875 0-1.532.656-1.532 1.53v15.095zm-70.232-7.547c0-.766-.656-1.422-1.422-1.422h-3.938c-.766 0-1.422.656-1.422 1.422 0 .765.656 1.422 1.422 1.422h4.047c.766 0 1.422-.657 1.313-1.422zm-7.986 6.125h8.861c.766 0 1.422.656 1.422 1.422 0 .765-.656 1.422-1.422 1.422H56.23c-.875 0-1.531-.657-1.531-1.532V11.266c0-.875.656-1.532 1.531-1.532h10.501c.766 0 1.422.657 1.422 1.422 0 .766-.656 1.422-1.422 1.422h-8.86v12.14z"/></g><defs><clipPath id="clip0_875_2673"><path fill="#fff" d="M0 0h163v35H0z"/></clipPath></defs></svg>
